svgs/uphold.svg

<svg width="192" height="192" viewBox="0 0 192 192" fill="none" xmlns="http://www.w3.org/2000/svg">
<path d="M147 82.5C147 117.836 123.876 145 97 145C70.1237 145 47 117.836 47 82.5C47 47.1637 70.1237 20 97 20C123.876 20 147 47.1637 147 82.5Z" stroke="black" stroke-width="8"/>
<path d="M61.5 40C104.504 40.8319 118.678 72.3242 122 137" stroke="black" stroke-width="8"/>
<path d="M67.5266 135.04C67.2724 137.234 68.8453 139.219 71.0397 139.473C73.2342 139.728 75.2192 138.155 75.4734 135.96L67.5266 135.04ZM135.596 37.5446C123.746 35.7594 113.79 36.2727 105.447 39.5565C97.0116 42.8764 90.6402 48.8633 85.7149 57.2212C80.8418 65.4906 77.3446 76.1407 74.5462 88.9988C71.7419 101.884 69.5887 117.237 67.5266 135.04L75.4734 135.96C77.5289 118.216 79.6463 103.183 82.3632 90.7C85.0859 78.1898 88.3604 68.4893 92.6072 61.2828C96.8018 54.1648 101.898 49.5504 108.377 47.0007C114.947 44.4148 123.351 43.7901 134.404 45.4554L135.596 37.5446Z" fill="black"/>
<path d="M77.5 167C91.3861 173.344 99.6641 173.62 115.5 167" stroke="black" stroke-width="8" stroke-linecap="round"/>
</svg>

<svg width="192" height="192" viewBox="0 0 192 192" fill="none" xmlns="http://www.w3.org/2000/svg"><path d="M147 82.5c0 35.336-23.124 62.5-50 62.5s-50-27.164-50-62.5S70.124 20 97 20s50 27.164 50 62.5Z" stroke="#000" stroke-width="8"/><path d="M61.5 40c43.004.832 57.178 32.324 60.5 97" stroke="#000" stroke-width="8"/><path d="M67.527 135.04a4 4 0 1 0 7.946.92l-7.946-.92Zm68.069-97.495c-11.85-1.786-21.806-1.272-30.149 2.011-8.435 3.32-14.807 9.307-19.732 17.665-4.873 8.27-8.37 18.92-11.169 31.778-2.804 12.885-4.957 28.238-7.02 46.041l7.947.92c2.056-17.744 4.173-32.777 6.89-45.26 2.723-12.51 5.997-22.21 10.244-29.417 4.195-7.118 9.291-11.733 15.77-14.282 6.57-2.586 14.974-3.21 26.027-1.546l1.192-7.91Z" fill="#000"/><path d="M77.5 167c13.886 6.344 22.164 6.62 38 0" stroke="#000" stroke-width="8" stroke-linecap="round"/></svg>
